X: 1
T:God Bless America
M:C|
L:1/8
P:Flute
Q:1/2=120
C:by Irving Berlin
K:Ab
a8 | g4f4 | g2zf(e4 | e4)(efga) |\
b8 | a4b4 | (c'8 | c'2)z2b2c'2 |\
d'4(f4 | f4)d'4 | c'4(e4 | e4)a2b2 |
c'4b2a2 | b4a2g2 | (a8 | a2)z2g2za |\
b4(e4 | e4)a2zb | c'4(e4 | e4)b2zc' |\
d'4(g4 | g4)c'2zd' | (Te'8 | e'8){d'e'}y|
f'8 | e'4d'4 | c'2b2(a4 | a2)z2d'4 |\
c'8 | b8 | (e'8 | e'2)(_ga bc'd'e') |\
f'8 | e'4d'4 | c'2d'2(c'4 | c'4)d'4 |\
c'8 | b8 | (a8 | a1) |]
%%begintext
%% GOD BLESS AMERICA, LAND THAT I LOVE.
%% STAND BESIDE HER, AND GUIDE HER,  THRU THE NIGHT WITH A LIGHT FROM ABOVE.
%% FROM THE MOUNTAINS, TO THE PRARIES, TO THE OCEANS, WHITE WITH FOAM,
%% |: God bless America, my home, sweet home. :|
%%endtext
